optimized/24/solid/cake.svg

<svg xmlns="http://www.w3.org/2000/svg" viewBox="0 0 24 24">
  <path d="M15 1.78418L14.2045 2.57969C13.7652 3.01903 13.7652 3.73134 14.2045 4.17068C14.6438 4.61002 15.3562 4.61002 15.7955 4.17068C16.2348 3.73134 16.2348 3.01903 15.7955 2.57969L15 1.78418Z"/>
  <path d="M12 1.78418L11.2045 2.57969C10.7652 3.01903 10.7652 3.73134 11.2045 4.17068C11.6438 4.61002 12.3562 4.61002 12.7955 4.17068C13.2348 3.73134 13.2348 3.01903 12.7955 2.57969L12 1.78418Z"/>
  <path d="M8.99999 1.78418L8.2045 2.57969C7.76516 3.01903 7.76516 3.73134 8.2045 4.17068C8.64384 4.61002 9.35616 4.61002 9.7955 4.17068C10.2348 3.73134 10.2348 3.01903 9.7955 2.57969L8.99999 1.78418Z"/>
  <path d="M9.75 7.54687C10.2483 7.52615 10.7483 7.51229 11.25 7.50536V6.75018C11.25 6.33597 11.5858 6.00018 12 6.00018C12.4142 6.00018 12.75 6.33597 12.75 6.75018V7.50536C13.2517 7.51229 13.7517 7.52615 14.25 7.54687V6.75018C14.25 6.33597 14.5858 6.00018 15 6.00018C15.4142 6.00018 15.75 6.33597 15.75 6.75018V7.63021C15.8524 7.63733 15.9547 7.64474 16.0569 7.65245C17.6071 7.76925 18.75 9.0795 18.75 10.5978V11.6164C16.5333 11.3744 14.2811 11.2502 12 11.2502C9.71886 11.2502 7.46673 11.3744 5.25 11.6164V10.5978C5.25 9.0795 6.39295 7.76925 7.94314 7.65245C8.04534 7.64474 8.14763 7.63733 8.25 7.63021V6.75018C8.25 6.33597 8.58579 6.00018 9 6.00018C9.41421 6.00018 9.75 6.33597 9.75 6.75018V7.54687Z"/>
  <path d="M12 12.7502C9.52847 12.7502 7.09944 12.9342 4.72596 13.2893C3.27191 13.5069 2.25 14.7718 2.25 16.2059V16.5902C3.11853 16.4288 4.02704 16.5502 4.83541 16.9544C5.56854 17.3209 6.43146 17.3209 7.16459 16.9544C8.32001 16.3767 9.67999 16.3767 10.8354 16.9544C11.5685 17.3209 12.4315 17.3209 13.1646 16.9544C14.32 16.3767 15.68 16.3767 16.8354 16.9544C17.5685 17.3209 18.4315 17.3209 19.1646 16.9544C19.973 16.5502 20.8815 16.4288 21.75 16.5902V16.2059C21.75 14.7718 20.7281 13.5069 19.274 13.2893C16.9006 12.9342 14.4715 12.7502 12 12.7502Z"/>
  <path d="M21.75 18.1314C21.1195 17.9418 20.4342 17.9966 19.8354 18.296C18.68 18.8737 17.32 18.8737 16.1646 18.296C15.4315 17.9294 14.5685 17.9294 13.8354 18.296C12.68 18.8737 11.32 18.8737 10.1646 18.296C9.43146 17.9294 8.56854 17.9294 7.83541 18.296C6.67999 18.8737 5.32001 18.8737 4.16459 18.296C3.56583 17.9966 2.88049 17.9418 2.25 18.1314V20.6252C2.25 21.6607 3.08947 22.5002 4.125 22.5002H19.875C20.9105 22.5002 21.75 21.6607 21.75 20.6252V18.1314Z"/>
</svg>

<svg xmlns="http://www.w3.org/2000/svg" viewBox="0 0 24 24" fill="currentColor" aria-hidden="true">
  <path d="M15 1.784l-.796.796a1.125 1.125 0 101.591 0L15 1.784zM12 1.784l-.796.796a1.125 1.125 0 101.591 0L12 1.784zM9 1.784l-.796.796a1.125 1.125 0 101.591 0L9 1.784zM9.75 7.547c.498-.02.998-.035 1.5-.042V6.75a.75.75 0 011.5 0v.755c.502.007 1.002.021 1.5.042V6.75a.75.75 0 011.5 0v.88l.307.022c1.55.117 2.693 1.427 2.693 2.946v1.018a62.182 62.182 0 00-13.5 0v-1.018c0-1.519 1.143-2.829 2.693-2.946l.307-.022v-.88a.75.75 0 011.5 0v.797zM12 12.75c-2.472 0-4.9.184-7.274.54-1.454.217-2.476 1.482-2.476 2.916v.384a4.104 4.104 0 012.585.364 2.605 2.605 0 002.33 0 4.104 4.104 0 013.67 0 2.605 2.605 0 002.33 0 4.104 4.104 0 013.67 0 2.605 2.605 0 002.33 0 4.104 4.104 0 012.585-.364v-.384c0-1.434-1.022-2.7-2.476-2.917A49.138 49.138 0 0012 12.75zM21.75 18.131a2.604 2.604 0 00-1.915.165 4.104 4.104 0 01-3.67 0 2.604 2.604 0 00-2.33 0 4.104 4.104 0 01-3.67 0 2.604 2.604 0 00-2.33 0 4.104 4.104 0 01-3.67 0 2.604 2.604 0 00-1.915-.165v2.494c0 1.036.84 1.875 1.875 1.875h15.75c1.035 0 1.875-.84 1.875-1.875v-2.494z"/>
</svg>
